; generated by Slic3r 0.9.11-dev on 2013-07-13 at 17:41:03

; layer_height = 0.3
; perimeters = 3
; top_solid_layers = 3
; bottom_solid_layers = 3
; fill_density = 0.1
; perimeter_speed = 30
; infill_speed = 60
; travel_speed = 60
; nozzle_diameter = 0.35
; filament_diameter = 3
; extrusion_multiplier = 1
; perimeters extrusion width = 0.60mm
; infill extrusion width = 0.60mm
; solid infill extrusion width = 0.60mm
; top infill extrusion width = 0.60mm
; first layer extrusion width = 0.60mm

G21 ; set units to millimeters
M107
M104 S230 ; set temperature
G28 ; home all axes
G1 Z5 F5000 ; lift nozzle
M109 S230 ; wait for temperature to be reached
G90 ; use absolute coordinates
G92 E0
M82 ; use absolute distances for extrusion
G1 F900.000 E-0.50000
G92 E0
G1 Z0.300 F3600.000
G1 X37.792 Y20.486
G1 F900.000 E0.50000
G1 X39.252 Y19.566 F540.000 E0.54001
G1 X41.492 Y18.346 E0.59916
G1 X41.922 Y18.136 E0.61026
G1 X44.692 Y16.896 E0.68063
G1 X47.092 Y16.016 E0.73990
G1 X49.992 Y15.176 E0.80991
G1 X50.462 Y15.056 E0.82116
G1 X52.962 Y14.536 E0.88037
G1 X53.472 Y14.456 E0.89234
G1 X56.442 Y14.086 E0.96174
G1 X58.992 Y13.936 E1.02097
G1 X59.502 Y13.926 E1.03280
G1 X62.052 Y13.976 E1.09194
G1 X62.542 Y14.006 E1.10332
G1 X65.082 Y14.246 E1.16248
G1 X65.542 Y14.306 E1.17324
G1 X68.052 Y14.726 E1.23225
G1 X68.532 Y14.826 E1.24362
G1 X71.012 Y15.436 E1.30284
G1 X73.882 Y16.346 E1.37265
G1 X74.372 Y16.526 E1.38476
G1 X76.732 Y17.496 E1.44392
G1 X77.172 Y17.686 E1.45503
G1 X79.452 Y18.826 E1.51414
G1 X82.052 Y20.346 E1.58398
G1 X82.472 Y20.616 E1.59556
G1 X84.562 Y22.076 E1.65467
G1 X86.922 Y23.976 E1.72493
G1 X89.142 Y26.056 E1.79547
G1 X91.192 Y28.276 E1.86553
G1 X91.522 Y28.666 E1.87738
G1 X93.092 Y30.676 E1.93652
G1 X93.362 Y31.046 E1.94714
G1 X94.792 Y33.166 E2.00644
G1 X95.052 Y33.586 E2.01789
G1 X96.312 Y35.796 E2.07688
G1 X96.542 Y36.246 E2.08860
G1 X97.822 Y38.986 E2.15872
G1 X98.742 Y41.366 E2.21789
G1 X99.642 Y44.246 E2.28786
G1 X99.772 Y44.726 E2.29939
G1 X100.052 Y45.966 E2.32886
G1 X100.422 Y47.706 E2.37011
G1 X100.792 Y50.226 E2.42917
G1 X100.842 Y50.686 E2.43990
G1 X101.032 Y53.226 E2.49896
G1 X101.052 Y53.716 E2.51033
G1 X101.052 Y56.266 E2.56946
G1 X101.032 Y56.756 E2.58084
G1 X100.842 Y59.306 E2.64013
G1 X100.612 Y61.006 E2.67991
G1 X100.332 Y62.776 E2.72146
G1 X99.772 Y65.266 E2.78064
G1 X99.642 Y65.746 E2.79217
G1 X98.742 Y68.626 E2.86214
G1 X97.822 Y71.006 E2.92130
G1 X97.632 Y71.446 E2.93242
G1 X96.542 Y73.746 E2.99143
G1 X95.052 Y76.396 E3.06193
G1 X94.792 Y76.826 E3.07358
G1 X93.362 Y78.946 E3.13288
G1 X93.092 Y79.316 E3.14350
G1 X91.522 Y81.326 E3.20264
G1 X91.192 Y81.716 E3.21448
G1 X89.472 Y83.596 E3.27357
G1 X87.302 Y85.676 E3.34327
G1 X86.922 Y86.016 E3.35509
G1 X84.562 Y87.916 E3.42535
G1 X82.472 Y89.376 E3.48446
G1 X82.052 Y89.646 E3.49604
G1 X79.452 Y91.166 E3.56587
G1 X77.172 Y92.306 E3.62498
G1 X76.712 Y92.506 E3.63661
G1 X73.902 Y93.636 E3.70684
G1 X71.472 Y94.426 E3.76609
G1 X71.012 Y94.556 E3.77718
G1 X68.532 Y95.166 E3.83640
G1 X68.052 Y95.266 E3.84776
G1 X65.542 Y95.686 E3.90677
G1 X65.082 Y95.746 E3.91753
G1 X62.542 Y95.986 E3.97669
G1 X62.022 Y96.016 E3.98877
G1 X59.472 Y96.056 E4.04790
G1 X59.012 Y96.046 E4.05857
G1 X56.462 Y95.906 E4.11779
G1 X55.972 Y95.856 E4.12921
G1 X53.442 Y95.526 E4.18837
G1 X50.482 Y94.936 E4.25836
G1 X49.992 Y94.816 E4.27006
G1 X47.092 Y93.976 E4.34007
G1 X44.692 Y93.096 E4.39934
G1 X43.102 Y92.396 E4.43962
G1 X41.492 Y91.646 E4.48081
G1 X39.252 Y90.426 E4.53995
G1 X38.842 Y90.186 E4.55097
G1 X36.692 Y88.806 E4.61021
G1 X36.272 Y88.516 E4.62204
G1 X34.242 Y86.976 E4.68113
G1 X31.972 Y85.006 E4.75082
G1 X31.612 Y84.666 E4.76230
G1 X29.822 Y82.846 E4.82150
G1 X29.482 Y82.466 E4.83332
G1 X27.562 Y80.166 E4.90279
G1 X26.032 Y78.056 E4.96323
G1 X25.792 Y77.696 E4.97326
G1 X24.442 Y75.526 E5.03252
G1 X23.022 Y72.836 E5.10305
G1 X22.802 Y72.376 E5.11488
G1 X21.802 Y70.036 E5.17388
G1 X20.802 Y67.206 E5.24348
G1 X20.652 Y66.726 E5.25514
G1 X20.002 Y64.256 E5.31436
G1 X19.432 Y61.276 E5.38472
G1 X19.352 Y60.796 E5.39600
G1 X19.072 Y58.266 E5.45502
G1 X18.942 Y55.256 E5.52488
G1 X18.942 Y54.736 E5.53694
G1 X19.072 Y51.726 E5.60680
G1 X19.352 Y49.186 E5.66606
G1 X19.902 Y46.196 E5.73655
G1 X20.002 Y45.736 E5.74747
G1 X20.652 Y43.266 E5.80669
G1 X20.802 Y42.786 E5.81835
G1 X21.802 Y39.956 E5.88795
G1 X22.802 Y37.616 E5.94695
G1 X23.012 Y37.166 E5.95847
G1 X24.192 Y34.896 E6.01779
G1 X24.442 Y34.456 E6.02953
G1 X25.792 Y32.286 E6.08879
G1 X26.062 Y31.896 E6.09979
G1 X27.842 Y29.476 E6.16945
G1 X29.482 Y27.526 E6.22853
G1 X29.822 Y27.146 E6.24035
G1 X31.612 Y25.326 E6.29954
G1 X31.972 Y24.986 E6.31103
G1 X34.242 Y23.016 E6.38072
G1 X36.272 Y21.476 E6.43980
G1 X37.723 Y20.530 E6.47996
G1 F900.000 E5.97996
G92 E0
G1 X88.390 Y38.443 F3600.000
G1 F900.000 E0.50000
G1 X88.478 Y38.565 F540.000 E0.50349
G1 X88.948 Y39.598 E0.52981
G1 X89.305 Y40.572 E0.55386
G1 X89.501 Y41.243 E0.57007
G1 X89.691 Y42.112 E0.59069
G1 X89.803 Y42.963 E0.61059
G1 X89.835 Y43.789 E0.62975
G1 X89.815 Y44.300 E0.64163
G1 X89.728 Y45.037 E0.65884
G1 X89.571 Y45.761 E0.67602
G1 X89.342 Y46.469 E0.69327
G1 X89.021 Y47.195 E0.71167
G1 X88.657 Y47.837 E0.72878
G1 X88.230 Y48.448 E0.74605
G1 X87.748 Y49.023 E0.76346
G1 X87.471 Y49.314 E0.77277
G1 X86.860 Y49.880 E0.79209
G1 X86.184 Y50.414 E0.81206
G1 X85.458 Y50.907 E0.83240
G1 X84.990 Y51.190 E0.84510
G1 X84.067 Y51.684 E0.86937
G1 X83.086 Y52.133 E0.89440
G1 X82.054 Y52.538 E0.92009
G1 X80.976 Y52.902 E0.94648
G1 X79.852 Y53.227 E0.97361
G1 X78.680 Y53.515 E1.00159
G1 X76.912 Y53.867 E1.04339
G1 X75.254 Y54.121 E1.08230
G1 X73.556 Y54.312 E1.12191
G1 X71.823 Y54.443 E1.16222
G1 X70.059 Y54.511 E1.20314
G1 X68.273 Y54.515 E1.24456
G1 X66.447 Y54.443 E1.28693
G1 X65.935 Y54.368 E1.29892
G1 X65.420 Y54.203 E1.31146
G1 X64.939 Y53.957 E1.32401
G1 X64.504 Y53.635 E1.33655
G1 X64.127 Y53.247 E1.34909
G1 X63.819 Y52.802 E1.36164
G1 X63.588 Y52.313 E1.37418
G1 X63.440 Y51.792 E1.38673
G1 X63.409 Y51.518 E1.39312
G1 X63.379 Y51.255 E1.39927
G1 X63.406 Y50.715 E1.41181
G1 X63.521 Y50.186 E1.42436
G1 X63.712 Y49.706 E1.43634
G1 X64.563 Y48.088 E1.47872
G1 X65.459 Y46.543 E1.52014
G1 X66.400 Y45.050 E1.56106
G1 X67.380 Y43.615 E1.60136
G1 X68.394 Y42.240 E1.64098
G1 X69.443 Y40.930 E1.67988
G1 X70.632 Y39.575 E1.72169
G1 X71.468 Y38.705 E1.74966
G1 X72.311 Y37.894 E1.77679
G1 X73.165 Y37.142 E1.80319
G1 X74.032 Y36.451 E1.82888
G1 X74.912 Y35.826 E1.85391
G1 X75.801 Y35.274 E1.87818
G1 X76.280 Y35.009 E1.89087
G1 X77.070 Y34.627 E1.91122
G1 X77.870 Y34.308 E1.93118
G1 X78.666 Y34.063 E1.95050
G1 X79.056 Y33.968 E1.95982
G1 X79.796 Y33.838 E1.97722
G1 X80.538 Y33.774 E1.99450
G1 X81.276 Y33.780 E2.01160
G1 X82.065 Y33.865 E2.03000
G1 X82.792 Y34.021 E2.04726
G1 X83.498 Y34.246 E2.06444
G1 X84.180 Y34.540 E2.08165
G1 X84.633 Y34.778 E2.09352
G1 X85.332 Y35.219 E2.11269
G1 X86.013 Y35.741 E2.13259
G1 X86.670 Y36.340 E2.15321
G1 X87.153 Y36.846 E2.16942
G1 X87.815 Y37.638 E2.19335
G1 X88.344 Y38.375 E2.21439
G1 X87.944 Y38.757 F3600.000
G1 X88.002 Y38.840 F378.000 E2.21674
G1 X88.442 Y39.806 E2.24135
G1 X88.785 Y40.743 E2.26449
G1 X88.971 Y41.379 E2.27985
G1 X89.153 Y42.206 E2.29949
G1 X89.258 Y43.009 E2.31827
G1 X89.288 Y43.788 E2.33636
G1 X89.270 Y44.257 E2.34724
G1 X89.189 Y44.947 E2.36335
G1 X89.043 Y45.619 E2.37928
G1 X88.831 Y46.274 E2.39526
G1 X88.532 Y46.949 E2.41237
G1 X88.194 Y47.545 E2.42825
G1 X87.796 Y48.115 E2.44438
G1 X87.341 Y48.659 E2.46082
G1 X87.087 Y48.925 E2.46934
G1 X86.505 Y49.465 E2.48776
G1 X85.861 Y49.973 E2.50677
G1 X85.163 Y50.446 E2.52633
G1 X84.720 Y50.715 E2.53835
G1 X83.824 Y51.194 E2.56190
G1 X82.872 Y51.630 E2.58619
G1 X81.867 Y52.025 E2.61122
G1 X80.813 Y52.380 E2.63702
G1 X79.711 Y52.699 E2.66362
G1 X78.561 Y52.981 E2.69106
G1 X76.818 Y53.329 E2.73230
G1 X75.182 Y53.579 E2.77067
G1 X73.505 Y53.768 E2.80980
G1 X71.791 Y53.897 E2.84964
G1 X70.048 Y53.965 E2.89009
G1 X68.283 Y53.968 E2.93102
G1 X66.497 Y53.898 E2.97246
G1 X66.059 Y53.834 E2.98274
G1 X65.629 Y53.697 E2.99320
G1 X65.227 Y53.491 E3.00366
G1 X64.865 Y53.223 E3.01412
G1 X64.551 Y52.899 E3.02458
G1 X64.294 Y52.528 E3.03504
G1 X64.101 Y52.120 E3.04550
G1 X63.978 Y51.686 E3.05596
G1 X63.927 Y51.238 E3.06643
G1 X63.949 Y50.787 E3.07689
G1 X64.045 Y50.346 E3.08735
G1 X64.209 Y49.935 E3.09762
G1 X65.041 Y48.353 E3.13907
G1 X65.926 Y46.826 E3.17999
G1 X66.857 Y45.350 E3.22045
G1 X67.825 Y43.931 E3.26029
G1 X68.827 Y42.573 E3.29942
G1 X69.862 Y41.281 E3.33779
G1 X71.035 Y39.945 E3.37902
G1 X71.854 Y39.091 E3.40646
G1 X72.681 Y38.296 E3.43306
G1 X73.516 Y37.561 E3.45887
G1 X74.360 Y36.888 E3.48390
G1 X75.214 Y36.281 E3.50819
G1 X76.077 Y35.745 E3.53173
G1 X76.531 Y35.495 E3.54376
G1 X77.290 Y35.127 E3.56332
G1 X78.052 Y34.824 E3.58232
G1 X78.811 Y34.590 E3.60075
G1 X79.168 Y34.503 E3.60926
G1 X79.866 Y34.380 E3.62571
G1 X80.559 Y34.321 E3.64183
G1 X81.244 Y34.326 E3.65772
G1 X81.978 Y34.405 E3.67483
G1 X82.652 Y34.549 E3.69080
G1 X83.306 Y34.759 E3.70674
G1 X83.944 Y35.033 E3.72284
G1 X84.360 Y35.252 E3.73373
G1 X85.020 Y35.668 E3.75181
G1 X85.662 Y36.160 E3.77059
G1 X86.288 Y36.731 E3.79024
G1 X86.746 Y37.210 E3.80559
G1 X87.385 Y37.975 E3.82870
G1 X87.897 Y38.690 E3.84910
G1 X88.044 Y38.748 F3600.000
G1 F900.000 E3.34910
G92 E0
G1 X59.862 Y22.145 F3600.000
G1 F900.000 E0.50000
G1 X60.012 Y22.131 F540.000 E0.50349
G1 X61.142 Y22.240 E0.52981
G1 X62.163 Y22.418 E0.55386
G1 X62.843 Y22.583 E0.57007
G1 X63.690 Y22.853 E0.59069
G1 X64.483 Y23.181 E0.61059
G1 X65.214 Y23.567 E0.62975
G1 X65.647 Y23.840 E0.64163
G1 X66.242 Y24.284 E0.65884
G1 X66.790 Y24.782 E0.67602
G1 X67.289 Y25.334 E0.69327
G1 X67.757 Y25.975 E0.71167
G1 X68.131 Y26.611 E0.72878
G1 X68.447 Y27.286 E0.74605
G1 X68.704 Y27.991 E0.76346
G1 X68.817 Y28.376 E0.77277
G1 X69.002 Y29.189 E0.79209
G1 X69.126 Y30.041 E0.81206
G1 X69.190 Y30.916 E0.83240
G1 X69.201 Y31.463 E0.84510
G1 X69.167 Y32.509 E0.86937
G1 X69.066 Y33.584 E0.89440
G1 X68.901 Y34.680 E0.92009
G1 X68.677 Y35.796 E0.94648
G1 X68.396 Y36.932 E0.97361
G1 X68.060 Y38.090 E1.00159
G1 X67.481 Y39.798 E1.04339
G1 X66.871 Y41.361 E1.08230
G1 X66.188 Y42.927 E1.12191
G1 X65.435 Y44.493 E1.16222
G1 X64.613 Y46.054 E1.20314
G1 X63.722 Y47.603 E1.24456
G1 X62.747 Y49.148 E1.28693
G1 X62.426 Y49.554 E1.29892
G1 X62.026 Y49.918 E1.31146
G1 X61.572 Y50.212 E1.32401
G1 X61.076 Y50.428 E1.33655
G1 X60.551 Y50.559 E1.34909
G1 X60.012 Y50.604 E1.36164
G1 X59.473 Y50.559 E1.37418
G1 X58.948 Y50.428 E1.38672
G1 X58.452 Y50.212 E1.39927
G1 X57.998 Y49.918 E1.41181
G1 X57.598 Y49.554 E1.42436
G1 X57.277 Y49.148 E1.43634
G1 X56.302 Y47.603 E1.47871
G1 X55.411 Y46.054 E1.52014
G1 X54.589 Y44.493 E1.56106
G1 X53.836 Y42.927 E1.60136
G1 X53.153 Y41.361 E1.64098
G1 X52.543 Y39.798 E1.67988
G1 X51.964 Y38.090 E1.72169
G1 X51.628 Y36.932 E1.74966
G1 X51.347 Y35.796 E1.77679
G1 X51.123 Y34.680 E1.80319
G1 X50.958 Y33.584 E1.82888
G1 X50.856 Y32.509 E1.85391
G1 X50.823 Y31.463 E1.87818
G1 X50.834 Y30.916 E1.89087
G1 X50.897 Y30.041 E1.91121
G1 X51.022 Y29.189 E1.93118
G1 X51.207 Y28.376 E1.95050
G1 X51.320 Y27.991 E1.95982
G1 X51.577 Y27.286 E1.97722
G1 X51.893 Y26.611 E1.99450
G1 X52.267 Y25.975 E2.01160
G1 X52.735 Y25.334 E2.03000
G1 X53.233 Y24.782 E2.04726
G1 X53.782 Y24.284 E2.06444
G1 X54.377 Y23.840 E2.08165
G1 X54.810 Y23.567 E2.09352
G1 X55.541 Y23.181 E2.11269
G1 X56.334 Y22.853 E2.13259
G1 X57.181 Y22.583 E2.15321
G1 X57.861 Y22.418 E2.16942
G1 X58.877 Y22.241 E2.19335
G1 X59.780 Y22.152 E2.21439
G1 X59.911 Y22.689 F3600.000
G1 X60.012 Y22.679 F378.000 E2.21674
G1 X61.069 Y22.782 E2.24135
G1 X62.052 Y22.953 E2.26449
G1 X62.695 Y23.110 E2.27985
G1 X63.502 Y23.366 E2.29949
G1 X64.251 Y23.677 E2.31827
G1 X64.941 Y24.040 E2.33636
G1 X65.338 Y24.291 E2.34724
G1 X65.894 Y24.706 E2.36335
G1 X66.403 Y25.168 E2.37928
G1 X66.865 Y25.680 E2.39526
G1 X67.300 Y26.275 E2.41237
G1 X67.647 Y26.866 E2.42825
G1 X67.942 Y27.496 E2.44438
G1 X68.185 Y28.162 E2.46082
G1 X68.288 Y28.514 E2.46934
G1 X68.465 Y29.289 E2.48776
G1 X68.583 Y30.100 E2.50677
G1 X68.644 Y30.941 E2.52633
G1 X68.655 Y31.460 E2.53835
G1 X68.622 Y32.475 E2.56190
G1 X68.523 Y33.518 E2.58619
G1 X68.363 Y34.585 E2.61122
G1 X68.144 Y35.676 E2.63702
G1 X67.868 Y36.790 E2.66362
G1 X67.539 Y37.926 E2.69106
G1 X66.968 Y39.611 E2.73230
G1 X66.366 Y41.152 E2.77067
G1 X65.691 Y42.699 E2.80980
G1 X64.947 Y44.247 E2.84964
G1 X64.134 Y45.791 E2.89009
G1 X63.254 Y47.321 E2.93102
G1 X62.300 Y48.832 E2.97246
G1 X62.025 Y49.180 E2.98274
G1 X61.692 Y49.484 E2.99320
G1 X61.313 Y49.729 E3.00366
G1 X60.899 Y49.909 E3.01412
G1 X60.675 Y49.965 E3.01948
G1 X60.462 Y50.019 E3.02458
G1 X60.012 Y50.055 E3.03504
G1 X59.562 Y50.019 E3.04550
G1 X59.338 Y49.962 E3.05086
G1 X59.125 Y49.909 E3.05596
G1 X58.711 Y49.729 E3.06643
G1 X58.332 Y49.484 E3.07689
G1 X57.999 Y49.180 E3.08735
G1 X57.724 Y48.832 E3.09762
G1 X56.770 Y47.321 E3.13907
G1 X55.890 Y45.791 E3.17999
G1 X55.077 Y44.247 E3.22045
G1 X54.332 Y42.699 E3.26029
G1 X53.658 Y41.152 E3.29942
G1 X53.056 Y39.611 E3.33779
G1 X52.485 Y37.926 E3.37902
G1 X52.156 Y36.790 E3.40646
G1 X51.880 Y35.676 E3.43306
G1 X51.661 Y34.585 E3.45887
G1 X51.501 Y33.518 E3.48390
G1 X51.402 Y32.475 E3.50819
G1 X51.369 Y31.460 E3.53173
G1 X51.380 Y30.941 E3.54376
G1 X51.441 Y30.100 E3.56332
G1 X51.559 Y29.289 E3.58232
G1 X51.736 Y28.514 E3.60075
G1 X51.839 Y28.162 E3.60926
G1 X52.082 Y27.496 E3.62571
G1 X52.377 Y26.866 E3.64183
G1 X52.724 Y26.275 E3.65772
G1 X53.159 Y25.680 E3.67483
G1 X53.621 Y25.168 E3.69080
G1 X54.130 Y24.706 E3.70674
G1 X54.686 Y24.291 E3.72284
G1 X55.083 Y24.040 E3.73373
G1 X55.773 Y23.677 E3.75181
G1 X56.521 Y23.366 E3.77059
G1 X57.329 Y23.110 E3.79024
G1 X57.972 Y22.953 E3.80559
G1 X58.954 Y22.782 E3.82870
G1 X59.830 Y22.696 E3.84910
G1 X59.953 Y22.597 F3600.000
G1 F900.000 E3.34910
G92 E0
G1 X31.484 Y38.702 F3600.000
G1 F900.000 E0.50000
G1 X31.546 Y38.565 F540.000 E0.50349
G1 X32.206 Y37.641 E0.52981
G1 X32.871 Y36.846 E0.55386
G1 X33.354 Y36.340 E0.57007
G1 X34.011 Y35.741 E0.59069
G1 X34.692 Y35.219 E0.61059
G1 X35.391 Y34.778 E0.62975
G1 X35.844 Y34.540 E0.64163
G1 X36.526 Y34.246 E0.65884
G1 X37.232 Y34.021 E0.67602
G1 X37.959 Y33.865 E0.69327
G1 X38.748 Y33.780 E0.71167
G1 X39.486 Y33.774 E0.72878
G1 X40.228 Y33.838 E0.74605
G1 X40.967 Y33.968 E0.76346
G1 X41.358 Y34.063 E0.77277
G1 X42.154 Y34.308 E0.79209
G1 X42.954 Y34.627 E0.81206
G1 X43.744 Y35.009 E0.83240
G1 X44.223 Y35.274 E0.84510
G1 X45.112 Y35.826 E0.86937
G1 X45.992 Y36.451 E0.89440
G1 X46.859 Y37.142 E0.92009
G1 X47.713 Y37.894 E0.94648
G1 X48.556 Y38.705 E0.97361
G1 X49.392 Y39.575 E1.00159
G1 X50.581 Y40.930 E1.04339
G1 X51.630 Y42.240 E1.08230
G1 X52.644 Y43.615 E1.12191
G1 X53.624 Y45.050 E1.16222
G1 X54.565 Y46.543 E1.20314
G1 X55.461 Y48.088 E1.24456
G1 X56.312 Y49.706 E1.28693
G1 X56.503 Y50.186 E1.29892
G1 X56.618 Y50.715 E1.31146
G1 X56.645 Y51.255 E1.32401
G1 X56.614 Y51.529 E1.33040
G1 X56.584 Y51.792 E1.33655
G1 X56.436 Y52.313 E1.34909
G1 X56.205 Y52.802 E1.36164
G1 X55.897 Y53.247 E1.37418
G1 X55.520 Y53.635 E1.38672
G1 X55.298 Y53.799 E1.39312
G1 X55.085 Y53.957 E1.39927
G1 X54.604 Y54.203 E1.41181
G1 X54.088 Y54.368 E1.42436
G1 X53.577 Y54.443 E1.43634
G1 X51.751 Y54.515 E1.47871
G1 X49.965 Y54.511 E1.52014
G1 X48.201 Y54.443 E1.56106
G1 X46.468 Y54.312 E1.60136
G1 X44.770 Y54.121 E1.64098
G1 X43.112 Y53.867 E1.67988
G1 X41.344 Y53.515 E1.72169
G1 X40.172 Y53.227 E1.74966
G1 X39.048 Y52.902 E1.77679
G1 X37.970 Y52.538 E1.80319
G1 X36.938 Y52.133 E1.82888
G1 X35.957 Y51.684 E1.85391
G1 X35.034 Y51.190 E1.87818
G1 X34.565 Y50.907 E1.89087
G1 X33.840 Y50.414 E1.91121
G1 X33.164 Y49.880 E1.93118
G1 X32.553 Y49.314 E1.95050
G1 X32.276 Y49.023 E1.95982
G1 X31.793 Y48.448 E1.97722
G1 X31.367 Y47.837 E1.99450
G1 X31.003 Y47.195 E2.01160
G1 X30.682 Y46.469 E2.03000
G1 X30.453 Y45.761 E2.04726
G1 X30.296 Y45.037 E2.06444
G1 X30.209 Y44.300 E2.08165
G1 X30.189 Y43.789 E2.09352
G1 X30.221 Y42.963 E2.11269
G1 X30.333 Y42.112 E2.13259
G1 X30.523 Y41.243 E2.15321
G1 X30.719 Y40.572 E2.16942
G1 X31.074 Y39.603 E2.19335
